;FLAVOR:Marlin
;TIME:7677
;Filament used: 2.98588m
;Layer height: 0.16
;MINX:79.317
;MINY:74.994
;MINZ:0.2
;MAXX:140.682
;MAXY:140.876
;MAXZ:28.16
;Generated with Cura_SteamEngine 4.13.1
M140 S60
M105
M190 S60
M104 S200
M105
M109 S200
M82 ;absolute extrusion mode
M201 X500.00 Y500.00 Z100.00 E5000.00 ;Setup machine max acceleration
M203 X500.00 Y500.00 Z10.00 E50.00 ;Setup machine max feedrate
M204 P500.00 R1000.00 T500.00 ;Setup Print/Retract/Travel acceleration
M205 X8.00 Y8.00 Z0.40 E5.00 ;Setup Jerk
M220 S100 ;Reset Feedrate
M221 S100 ;Reset Flowrate

G28 ;Home

G92 E0 ;Reset Extruder
G1 Z2.0 F3000 ;Move Z Axis up
G1 X10.1 Y20 Z0.28 F5000.0 ;Move to start position
G1 X10.1 Y200.0 Z0.28 F1500.0 E15 ;Draw the first line
G1 X10.4 Y200.0 Z0.28 F5000.0 ;Move to side a little
G1 X10.4 Y20 Z0.28 F1500.0 E30 ;Draw the second line
G92 E0 ;Reset Extruder
G1 Z2.0 F3000 ;Move Z Axis up
G92 E0
G92 E0
G1 F2700 E-5
;LAYER_COUNT:228
;LAYER:0
M107
G0 F6000 X82.195 Y79.007 Z0.2
;TYPE:SKIRT
G1 F2700 E0
G1 F1200 X82.843 Y78.329 E0.03119
G1 X83.451 Y77.785 E0.05833
G1 X83.679 Y77.596 E0.06818
G1 X84.426 Y77.029 E0.09937
G1 X85.055 Y76.624 E0.12425
G1 X85.879 Y76.176 E0.15545
G1 X86.738 Y75.8 E0.18664
G1 X88.009 Y75.394 E0.23101
G1 X88.214 Y75.342 E0.23805
G1 X89.132 Y75.15 E0.26924
G1 X90.064 Y75.037 E0.30047
G1 X90.767 Y75.005 E0.32387
G1 X91.654 Y74.994 E0.35338
G1 X128.59 Y75.026 E1.58187
G1 X129.272 Y75.037 E1.60456
G1 X130.209 Y75.093 E1.63578
G1 X131.137 Y75.227 E1.66697
G1 X131.794 Y75.372 E1.68934
G1 X132.039 Y75.434 E1.69775
G1 X132.937 Y75.703 E1.72893
G1 X133.81 Y76.047 E1.76014
G1 X134.65 Y76.464 E1.79133
G1 X135.778 Y77.179 E1.83575
G1 X135.947 Y77.301 E1.84268
G1 X136.684 Y77.882 E1.87389
G1 X137.368 Y78.523 E1.90507
G1 X138 Y79.227 E1.93654
G1 X138.056 Y79.295 E1.93947
G1 X138.621 Y80.044 E1.97067
G1 X139.12 Y80.838 E2.00186
G1 X139.55 Y81.672 E2.03307
G1 X139.906 Y82.539 E2.06425
G1 X140.188 Y83.434 E2.09546
G1 X140.393 Y84.349 E2.12664
G1 X140.528 Y85.382 E2.16129
G1 X140.549 Y85.636 E2.16977
G1 X140.57 Y85.951 E2.18027
G1 X140.605 Y86.602 E2.20195
G1 X140.618 Y86.931 E2.21291
G1 X140.636 Y87.732 E2.23955
G1 X140.64 Y88.219 E2.25575
G1 X140.68 Y90.49 E2.3313
G1 X140.682 Y90.694 E2.33808
G1 X140.647 Y128.756 E3.60403
G1 X140.636 Y129.473 E3.62788
G1 X140.581 Y130.409 E3.65907
G1 X140.447 Y131.337 E3.69025
G1 X140.196 Y132.388 E3.72619
G1 X140.111 Y132.679 E3.73627
G1 X139.81 Y133.567 E3.76746
G1 X139.434 Y134.427 E3.79868
G1 X138.987 Y135.251 E3.82986
G1 X138.47 Y136.034 E3.86106
G1 X137.937 Y136.715 E3.88983
G1 X137.802 Y136.874 E3.89677
G1 X137.165 Y137.562 E3.92795
G1 X136.472 Y138.194 E3.95915
G1 X135.727 Y138.764 E3.99034
G1 X134.937 Y139.269 E4.02153
G1 X134.106 Y139.704 E4.05273
G1 X132.993 Y140.157 E4.09269
G1 X132.673 Y140.267 E4.10395
G1 X131.774 Y140.533 E4.13513
G1 X130.855 Y140.723 E4.16634
G1 X129.924 Y140.833 E4.19752
G1 X129.262 Y140.863 E4.21956
G1 X128.286 Y140.876 E4.25203
G1 X91.382 Y140.842 E5.47946
G1 X90.706 Y140.831 E5.50195
G1 X89.77 Y140.775 E5.53314
G1 X88.842 Y140.641 E5.56432
G1 X88.237 Y140.509 E5.58492
G1 X87.987 Y140.447 E5.59348
G1 X87.087 Y140.182 E5.62469
G1 X86.213 Y139.842 E5.65588
G1 X85.371 Y139.429 E5.68707
G1 X84.568 Y138.945 E5.71826
G1 X83.808 Y138.395 E5.74946
G1 X83.192 Y137.87 E5.77638
G1 X82.97 Y137.666 E5.78641
G1 X82.307 Y137.002 E5.81762
G1 X81.703 Y136.285 E5.8488
G1 X81.163 Y135.518 E5.88
G1 X80.689 Y134.709 E5.91118
G1 X80.192 Y133.633 E5.9506
G1 X80.116 Y133.442 E5.95744
G1 X79.807 Y132.556 E5.98865
G1 X79.574 Y131.648 E6.01983
G1 X79.42 Y130.723 E6.05102
G1 X79.339 Y129.577 E6.08923
G1 X79.319 Y128.489 E6.12542
G1 X79.317 Y128.277 E6.13247
G1 X79.352 Y90.233 E7.39782
G1 X79.363 Y89.552 E7.42048
G1 X79.372 Y89.255 E7.43036
G1 X79.394 Y88.742 E7.44744
G1 X79.451 Y86.579 E7.5194
G1 X79.478 Y85.848 E7.54373
G1 X79.553 Y84.913 E7.57493
G1 X79.707 Y83.988 E7.60612
G1 X79.939 Y83.079 E7.63732
G1 X80.248 Y82.194 E7.6685
G1 X80.631 Y81.338 E7.69969
G1 X81.085 Y80.517 E7.73089
G1 X81.608 Y79.739 E7.76207
G1 X82.195 Y79.007 E7.79328
G0 F6000 X82.586 Y79.17
G1 F1200 X83.231 Y78.512 E7.82393
G1 X83.706 Y78.093 E7.84499
G1 X83.934 Y77.904 E7.85484
G1 X84.668 Y77.348 E7.88547
G1 X85.26 Y76.967 E7.90889
G1 X86.07 Y76.528 E7.93953
G1 X86.914 Y76.161 E7.97014
G1 X88.108 Y75.781 E8.01182
G1 X88.313 Y75.729 E8.01885
G1 X89.214 Y75.542 E8.04946
G1 X90.128 Y75.434 E8.08007
G1 X90.773 Y75.405 E8.10154
G1 X91.654 Y75.394 E8.13085
G1 X128.584 Y75.426 E9.35914
G1 X129.266 Y75.437 E9.38183
G1 X130.185 Y75.492 E9.41245
G1 X131.096 Y75.627 E9.44308
G1 X131.695 Y75.76 E9.46349
G1 X131.94 Y75.822 E9.47189
G1 X132.822 Y76.086 E9.50252
G1 X133.678 Y76.426 E9.53315
G1 X134.501 Y76.839 E9.56378
G1 X135.544 Y77.503 E9.6049
G1 X135.713 Y77.625 E9.61183
G1 X136.436 Y78.196 E9.64248
G1 X137.106 Y78.828 E9.67311
G1 X137.691 Y79.482 E9.70229
G1 X137.747 Y79.55 E9.70522
G1 X138.301 Y80.285 E9.73584
G1 X138.789 Y81.066 E9.76647
G1 X139.208 Y81.886 E9.79709
G1 X139.553 Y82.739 E9.8277
G1 X139.824 Y83.619 E9.85832
G1 X140.016 Y84.519 E9.88893
G1 X140.129 Y85.415 E9.91897
G1 X140.15 Y85.669 E9.92744
G1 X140.171 Y85.973 E9.93758
G1 X140.206 Y86.624 E9.95926
G1 X140.218 Y86.94 E9.96978
G1 X140.236 Y87.735 E9.99623
G1 X140.24 Y88.222 E10.01243
G1 X140.282 Y90.694 E10.09466
G1 X140.247 Y128.75 E11.36041
G1 X140.236 Y129.467 E11.38426
G1 X140.182 Y130.386 E11.41488
G1 X140.048 Y131.297 E11.4455
G1 X139.812 Y132.276 E11.479
G1 X139.727 Y132.567 E11.48908
G1 X139.431 Y133.439 E11.51971
G1 X139.06 Y134.281 E11.55031
G1 X138.617 Y135.089 E11.58096
G1 X138.106 Y135.855 E11.61159
G1 X137.632 Y136.456 E11.63704
G1 X137.497 Y136.615 E11.64398
G1 X136.872 Y137.29 E11.67458
G1 X136.19 Y137.908 E11.70519
G1 X135.456 Y138.465 E11.73584
G1 X134.678 Y138.956 E11.76643
G1 X133.859 Y139.378 E11.79708
G1 X132.863 Y139.778 E11.83278
G1 X132.543 Y139.888 E11.84403
G1 X131.66 Y140.149 E11.87466
G1 X130.758 Y140.333 E11.90527
G1 X129.843 Y140.438 E11.93591
G1 X129.256 Y140.463 E11.95545
G1 X128.286 Y140.476 E11.98771
G1 X91.389 Y140.442 E13.21491
G1 X90.713 Y140.431 E13.2374
G1 X89.794 Y140.376 E13.26802
G1 X88.883 Y140.241 E13.29865
G1 X88.333 Y140.12 E13.31738
G1 X88.083 Y140.058 E13.32595
G1 X87.2 Y139.798 E13.35656
G1 X86.343 Y139.462 E13.38718
G1 X85.518 Y139.053 E13.41781
G1 X84.732 Y138.574 E13.44842
G1 X83.99 Y138.029 E13.47904
G1 X83.463 Y137.575 E13.50218
G1 X83.241 Y137.371 E13.51221
G1 X82.591 Y136.719 E13.54283
G1 X81.999 Y136.014 E13.57345
G1 X81.472 Y135.259 E13.60407
G1 X81.011 Y134.462 E13.63469
G1 X80.564 Y133.485 E13.67043
G1 X80.488 Y133.294 E13.67726
G1 X80.185 Y132.425 E13.70787
G1 X79.959 Y131.532 E13.73851
G1 X79.811 Y130.623 E13.76914
G1 X79.739 Y129.57 E13.80425
G1 X79.719 Y128.482 E13.84044
G1 X79.717 Y128.277 E13.84726
G1 X79.752 Y90.24 E15.11238
G1 X79.763 Y89.559 E15.13503
G1 X79.772 Y89.272 E15.14458
G1 X79.794 Y88.77 E15.16129
G1 X79.851 Y86.594 E15.23369
G1 X79.878 Y85.863 E15.25802
G1 X79.952 Y84.945 E15.28865
G1 X80.105 Y84.037 E15.31928
G1 X80.337 Y83.146 E15.3499
G1 X80.645 Y82.279 E15.3805
G1 X81.027 Y81.441 E15.41114
G1 X81.48 Y80.64 E15.44174
G1 X82.001 Y79.881 E15.47236
G1 X82.586 Y79.17 E15.50299
G0 F6000 X82.976 Y79.335
G1 F1200 X83.618 Y78.699 E15.53304
G1 X83.961 Y78.401 E15.54815
G1 X84.189 Y78.212 E15.558
G1 X84.91 Y77.667 E15.58807
G1 X85.466 Y77.31 E15.61004
G1 X86.26 Y76.88 E15.64007
G1 X87.089 Y76.522 E15.67011
G1 X88.206 Y76.169 E15.70907
G1 X88.411 Y76.117 E15.71611
G1 X89.295 Y75.934 E15.74613
G1 X90.193 Y75.83 E15.7762
G1 X90.779 Y75.805 E15.79571
G1 X91.654 Y75.794 E15.82481
G1 X128.577 Y75.826 E17.05288
G1 X129.259 Y75.837 E17.07556
G1 X130.161 Y75.892 E17.10562
G1 X131.054 Y76.026 E17.13565
G1 X131.597 Y76.148 E17.15416
G1 X131.842 Y76.21 E17.16257
G1 X132.707 Y76.47 E17.19261
G1 X133.546 Y76.805 E17.22266
G1 X134.351 Y77.214 E17.25269
G1 X135.31 Y77.828 E17.29056
G1 X135.479 Y77.95 E17.2975
G1 X136.187 Y78.51 E17.32752
G1 X136.843 Y79.131 E17.35756
G1 X137.383 Y79.736 E17.38454
G1 X137.439 Y79.804 E17.38747
G1 X137.981 Y80.526 E17.41749
G1 X138.458 Y81.293 E17.44753
G1 X138.865 Y82.099 E17.47757
G1 X139.199 Y82.938 E17.5076
G1 X139.458 Y83.803 E17.53763
G1 X139.639 Y84.688 E17.56768
G1 X139.73 Y85.448 E17.59314
G1 X139.751 Y85.702 E17.60161
G1 X139.771 Y85.994 E17.61135
G1 X139.806 Y86.645 E17.63303
G1 X139.818 Y86.95 E17.64318
G1 X139.836 Y87.738 E17.6694
G1 X139.84 Y88.225 E17.6856
G1 X139.882 Y90.693 E17.7677
G1 X139.847 Y128.743 E19.03324
G1 X139.836 Y129.46 E19.05709
G1 X139.782 Y130.362 E19.08715
G1 X139.649 Y131.255 E19.11718
G1 X139.428 Y132.164 E19.14829
G1 X139.343 Y132.455 E19.15837
G1 X139.052 Y133.31 E19.18841
G1 X138.686 Y134.135 E19.21843
G1 X138.248 Y134.926 E19.24851
G1 X137.743 Y135.674 E19.27852
G1 X137.327 Y136.197 E19.30075
G1 X137.192 Y136.356 E19.30769
G1 X136.578 Y137.018 E19.33772
G1 X135.907 Y137.623 E19.36777
G1 X135.186 Y138.166 E19.39779
G1 X134.419 Y138.643 E19.42783
G1 X133.613 Y139.051 E19.45788
G1 X132.733 Y139.4 E19.48936
G1 X132.413 Y139.51 E19.50062
G1 X131.547 Y139.765 E19.53064
G1 X130.661 Y139.943 E19.5607
G1 X129.764 Y140.042 E19.59072
G1 X129.25 Y140.063 E19.60783
G1 X128.287 Y140.076 E19.63986
G1 X91.395 Y140.042 E20.86689
G1 X90.719 Y140.031 E20.88938
G1 X89.818 Y139.976 E20.9194
G1 X88.925 Y139.842 E20.94944
G1 X88.43 Y139.732 E20.9663
G1 X88.18 Y139.67 E20.97487
G1 X87.314 Y139.414 E21.0049
G1 X86.474 Y139.083 E21.03493
G1 X85.666 Y138.678 E21.06499
G1 X84.898 Y138.204 E21.09501
G1 X84.174 Y137.663 E21.12507
G1 X83.733 Y137.281 E21.14448
G1 X83.511 Y137.077 E21.15451
G1 X82.874 Y136.437 E21.18454
G1 X82.296 Y135.743 E21.21458
G1 X81.781 Y135.001 E21.24462
G1 X81.335 Y134.216 E21.27465
G1 X80.936 Y133.337 E21.30675
G1 X80.86 Y133.146 E21.31359
G1 X80.563 Y132.293 E21.34363
G1 X80.343 Y131.417 E21.37367
G1 X80.202 Y130.525 E21.40371
G1 X80.139 Y129.562 E21.43581
G1 X80.117 Y128.278 E21.47852
G1 X80.152 Y90.246 E22.74347
G1 X80.163 Y89.565 E22.76612
G1 X80.172 Y89.289 E22.77531
G1 X80.193 Y88.797 E22.79169
G1 X80.251 Y86.609 E22.86449
G1 X80.278 Y85.878 E22.88882
G1 X80.351 Y84.977 E22.91888
G1 X80.504 Y84.087 E22.94892
G1 X80.735 Y83.214 E22.97895
G1 X81.042 Y82.365 E23.00898
G1 X81.423 Y81.546 E23.03902
G1 X81.874 Y80.764 E23.06905
G1 X82.394 Y80.025 E23.0991
G1 X82.976 Y79.335 E23.12913
G0 F6000 X91.063 Y86.593
G1 F1200 X128.976 Y86.626 E24.39012
G1 X128.976 Y86.706 E24.39278
G1 X91.063 Y86.671 E25.65377
G1 X91.063 Y86.593 E25.65636
G0 F6000 X90.93 Y86.193
G1 F1200 X129.087 Y86.226 E26.92547
G1 X129.243 Y86.263 E26.9308
G1 X129.376 Y86.358 E26.93624
G1 X129.375 Y87.131 E26.96195
G1 X129.385 Y87.16 E26.96297
G1 X129.149 Y87.106 E26.97102
G1 X90.894 Y87.072 E28.24339
G1 X90.665 Y87.113 E28.25113
G1 X90.661 Y86.325 E28.27734
G1 X90.807 Y86.222 E28.28328
G1 X90.93 Y86.193 E28.28748
G0 F6000 X90.919 Y87.471
;TYPE:SUPPORT-INTERFACE
G1 F1200 X129.132 Y87.506 E29.55845
G1 X129.198 Y87.517 E29.56068
G1 X129.354 Y87.575 E29.56621
G1 X129.377 Y87.842 E29.57513
G1 X129.428 Y87.902 E29.57775
G1 X129.41 Y88.217 E29.58824
G1 X129.305 Y88.194 E29.59182
G1 X129.176 Y88.176 E29.59615
G1 X92.534 Y88.144 E30.81487
G1 X90.866 Y88.141 E30.87034
G1 X90.731 Y88.158 E30.87487
G1 X90.67 Y88.172 E30.87695
G1 X90.668 Y87.524 E30.8985
G1 X90.675 Y87.52 E30.89877
G1 X90.878 Y87.475 E30.90569
G1 X90.919 Y87.471 E30.90706
G0 F6000 X91.065 Y87.671
G1 F1200 X91.335 Y87.941 E30.91976
G0 F6000 X91.944 Y87.943
G1 F1200 X92.216 Y87.671 E30.93255
G0 F6000 X94.462 Y87.674
G1 F1200 X94.733 Y87.945 E30.9453
G0 F6000 X95.334 Y87.947
G1 F1200 X95.607 Y87.674 E30.95814
G0 F6000 X97.86 Y87.677
G1 F1200 X98.13 Y87.948 E30.97086
G0 F6000 X98.726 Y87.949
G1 F1200 X98.998 Y87.677 E30.98366
G0 F6000 X101.256 Y87.68
G1 F1200 X101.528 Y87.952 E30.99645
G0 F6000 X102.117 Y87.952
G1 F1200 X102.389 Y87.681 E31.00922
G0 F6000 X104.654 Y87.684
G1 F1200 X104.925 Y87.954 E31.02195
G0 F6000 X105.508 Y87.955
G1 F1200 X105.78 Y87.684 E31.03472
G0 F6000 X108.051 Y87.686
G1 F1200 X108.322 Y87.957 E31.04746
G0 F6000 X108.899 Y87.959
G1 F1200 X109.17 Y87.687 E31.06023
G0 F6000 X111.449 Y87.69
G1 F1200 X111.719 Y87.96 E31.07293
G0 F6000 X112.29 Y87.961
G1 F1200 X112.562 Y87.69 E31.0857
G0 F6000 X114.846 Y87.693
G1 F1200 X115.116 Y87.963 E31.0984
G0 F6000 X115.681 Y87.964
G1 F1200 X115.952 Y87.693 E31.11115
G0 F6000 X118.243 Y87.696
G1 F1200 X118.513 Y87.966 E31.12385
G0 F6000 X119.073 Y87.967
G1 F1200 X119.344 Y87.696 E31.1366
G0 F6000 X121.641 Y87.7
G1 F1200 X121.91 Y87.969 E31.14925
G0 F6000 X122.464 Y87.97
G1 F1200 X122.734 Y87.7 E31.16195
G0 F6000 X125.038 Y87.703
G1 F1200 X125.307 Y87.972 E31.1746
G0 F6000 X125.855 Y87.973
G1 F1200 X126.125 Y87.703 E31.1873
G0 F6000 X128.436 Y87.706
G1 F1200 X128.704 Y87.975 E31.19993
G1 F2700 E26.19993
;MESH:Soundmixer4_Korpus.stl
G0 F6000 X128.473 Y90.386
G0 X128.454 Y120.593
G0 X124.406 Y118.547
G0 X120.202 Y119.449
G0 X119.787 Y119.657
G0 X119.207 Y120.162
G0 X118.72 Y120.849
G0 X118.186 Y122.166
G0 X117.82 Y123.72
G0 X117.681 Y125.208
G0 X117.796 Y126.152
G0 X117.963 Y126.595
G0 X118.109 Y126.819
G0 X118.988 Y127.762
;TYPE:WALL-INNER
G1 F2700 E31.19993
G1 F1200 X119.571 Y127.8 E31.21937
G1 X119.889 Y127.745 E31.2301
G1 X120.187 Y127.647 E31.24053
G1 X120.474 Y127.505 E31.25118
G1 X120.77 Y127.312 E31.26294
G1 X121.077 Y127.013 E31.27719
G1 X121.32 Y126.746 E31.2892
G1 X121.517 Y126.516 E31.29927
G1 X121.686 Y126.368 E31.30674
G1 X121.937 Y126.26 E31.31583
G1 X122.358 Y126.179 E31.33009
G1 X122.604 Y126.153 E31.33832
G1 X122.873 Y126.135 E31.34728
G1 X123.203 Y126.125 E31.35826
G1 X123.525 Y126.139 E31.36898
G1 X123.745 Y126.156 E31.37632
G1 X124.002 Y126.184 E31.38492
G1 X124.214 Y126.219 E31.39207
G1 X124.539 Y126.315 E31.40334
G1 X124.811 Y126.527 E31.41481
G1 X125.033 Y126.778 E31.42595
G1 X125.275 Y127.038 E31.43777
G1 X125.555 Y127.314 E31.45085
G1 X125.851 Y127.511 E31.46267
G1 X126.138 Y127.651 E31.47329
G1 X126.448 Y127.757 E31.48419
G1 X127.041 Y127.815 E31.50401
G1 X127.622 Y127.677 E31.52387
G1 X128.107 Y127.37 E31.54296
G1 X128.465 Y126.956 E31.56116
G1 X128.705 Y126.481 E31.57886
G1 X128.842 Y125.985 E31.59598
G1 X128.881 Y125.718 E31.60495
G1 X128.912 Y125.224 E31.62142
G1 X128.898 Y124.714 E31.63839
G1 X128.849 Y124.199 E31.65559
G1 X128.77 Y123.684 E31.67292
G1 X128.671 Y123.17 E31.69033
G1 X128.55 Y122.641 E31.70838
G1 X128.4 Y122.098 E31.72712
G1 X128.216 Y121.552 E31.74628
G1 X127.993 Y121.009 E31.7658
G1 X127.849 Y120.73 E31.77625
G1 X127.69 Y120.468 E31.78644
G1 X127.516 Y120.221 E31.79649
G1 X127.328 Y119.994 E31.80629
G1 X127.123 Y119.781 E31.81612
G1 X126.695 Y119.441 E31.83431
G1 X126.231 Y119.209 E31.85156
G1 X125.772 Y119.084 E31.86738
G1 X125.339 Y119.034 E31.88188
G1 X124.961 Y119.032 E31.89445
G1 X124.528 Y119.104 E31.90905
G1 X123.944 Y119.262 E31.92917
G1 X123.666 Y119.322 E31.93863
G1 X123.439 Y119.351 E31.94624
G1 X123.18 Y119.361 E31.95486
G1 X122.902 Y119.349 E31.96412
G1 X122.669 Y119.319 E31.97193
G1 X122.396 Y119.26 E31.98122
G1 X121.815 Y119.102 E32.00125
G1 X121.382 Y119.029 E32.01585
G1 X121.002 Y119.03 E32.02849
G1 X120.57 Y119.08 E32.04296
G1 X120.109 Y119.204 E32.05883
G1 X119.646 Y119.436 E32.07606
G1 X119.219 Y119.774 E32.09417
G1 X119.012 Y119.988 E32.10408
G1 X118.826 Y120.214 E32.11381
G1 X118.651 Y120.46 E32.12385
G1 X118.492 Y120.721 E32.13402
G1 X118.347 Y121.001 E32.1445
G1 X118.122 Y121.543 E32.16402
G1 X117.938 Y122.089 E32.18319
G1 X117.785 Y122.63 E32.20189
G1 X117.663 Y123.16 E32.21997
G1 X117.564 Y123.675 E32.23742
