;FLAVOR:Marlin
;TIME:3441
;Filament used: 2.09582m
;Layer height: 0.16
;MINX:81.15
;MINY:80.4
;MINZ:0.2
;MAXX:138.85
;MAXY:140.066
;MAXZ:28.6
;Generated with Cura_SteamEngine 4.13.1
M140 S60
M105
M190 S60
M104 S200
M105
M109 S200
M82 ;absolute extrusion mode
M201 X500.00 Y500.00 Z100.00 E5000.00 ;Setup machine max acceleration
M203 X500.00 Y500.00 Z10.00 E50.00 ;Setup machine max feedrate
M204 P500.00 R1000.00 T500.00 ;Setup Print/Retract/Travel acceleration
M205 X8.00 Y8.00 Z0.40 E5.00 ;Setup Jerk
M220 S100 ;Reset Feedrate
M221 S100 ;Reset Flowrate

G28 ;Home

G92 E0 ;Reset Extruder
G1 Z2.0 F3000 ;Move Z Axis up
G1 X10.1 Y20 Z0.28 F5000.0 ;Move to start position
G1 X10.1 Y200.0 Z0.28 F1500.0 E15 ;Draw the first line
G1 X10.4 Y200.0 Z0.28 F5000.0 ;Move to side a little
G1 X10.4 Y20 Z0.28 F1500.0 E30 ;Draw the second line
G92 E0 ;Reset Extruder
G1 Z2.0 F3000 ;Move Z Axis up
G92 E0
G92 E0
G1 F2700 E-5
;LAYER_COUNT:158
;LAYER:0
M107
G0 F6000 X84.36 Y83.652 Z0.2
;TYPE:SKIRT
G1 F2700 E0
G1 F1200 X85.049 Y83.016 E0.03119
G1 X85.79 Y82.441 E0.06238
G1 X86.577 Y81.931 E0.09357
G1 X87.405 Y81.49 E0.12478
G1 X88.267 Y81.121 E0.15596
G1 X89.158 Y80.827 E0.18717
G1 X90.07 Y80.609 E0.21836
G1 X90.997 Y80.471 E0.24953
G1 X91.851 Y80.413 E0.278
G1 X92.171 Y80.404 E0.28865
G1 X92.48 Y80.4 E0.29892
G1 X127.143 Y80.4 E1.45182
G1 X127.999 Y80.411 E1.48029
G1 X128.935 Y80.465 E1.51148
G1 X129.863 Y80.597 E1.54265
G1 X130.777 Y80.809 E1.57386
G1 X131.669 Y81.098 E1.60505
G1 X132.534 Y81.461 E1.63625
G1 X133.364 Y81.897 E1.66743
G1 X134.155 Y82.402 E1.69864
G1 X134.899 Y82.973 E1.72984
G1 X135.592 Y83.605 E1.76103
G1 X136.229 Y84.293 E1.79222
G1 X136.804 Y85.034 E1.82341
G1 X137.315 Y85.82 E1.85459
G1 X137.757 Y86.648 E1.88581
G1 X138.126 Y87.51 E1.917
G1 X138.421 Y88.4 E1.94818
G1 X138.639 Y89.312 E1.97937
G1 X138.779 Y90.24 E2.01058
G1 X138.837 Y91.101 E2.03929
G1 X138.846 Y91.421 E2.04993
G1 X138.85 Y91.73 E2.06021
G1 X138.849 Y128.466 E3.28206
G1 X138.84 Y129.193 E3.30624
G1 X138.789 Y130.13 E3.33745
G1 X138.657 Y131.058 E3.36863
G1 X138.448 Y131.972 E3.39981
G1 X138.161 Y132.865 E3.43101
G1 X137.799 Y133.731 E3.46223
G1 X137.365 Y134.562 E3.49341
G1 X136.861 Y135.353 E3.5246
G1 X136.292 Y136.098 E3.55578
G1 X135.661 Y136.793 E3.587
G1 X134.974 Y137.431 E3.61819
G1 X134.235 Y138.008 E3.64937
G1 X133.449 Y138.52 E3.68057
G1 X132.623 Y138.963 E3.71175
G1 X131.761 Y139.335 E3.74297
G1 X130.872 Y139.631 E3.77414
G1 X129.96 Y139.851 E3.80534
G1 X129.033 Y139.992 E3.83653
G1 X128.149 Y140.053 E3.866
G1 X127.828 Y140.062 E3.87668
G1 X127.52 Y140.066 E3.88692
G1 X92.711 Y140.064 E5.04468
G1 X92.017 Y140.055 E5.06776
G1 X91.081 Y140.003 E5.09894
G1 X90.152 Y139.871 E5.13015
G1 X89.238 Y139.661 E5.16134
G1 X88.346 Y139.373 E5.19252
G1 X87.481 Y139.011 E5.2237
G1 X86.65 Y138.576 E5.2549
G1 X85.859 Y138.072 E5.2861
G1 X85.114 Y137.503 E5.31728
G1 X84.42 Y136.872 E5.34847
G1 X83.782 Y136.184 E5.37968
G1 X83.205 Y135.444 E5.41089
G1 X82.694 Y134.658 E5.44207
G1 X82.251 Y133.832 E5.47325
G1 X81.88 Y132.97 E5.50446
G1 X81.584 Y132.08 E5.53566
G1 X81.365 Y131.168 E5.56685
G1 X81.224 Y130.241 E5.59804
G1 X81.165 Y129.377 E5.62684
G1 X81.155 Y129.034 E5.63825
G1 X81.15 Y128.713 E5.64893
G1 X81.151 Y91.909 E6.87304
G1 X81.161 Y91.244 E6.89516
G1 X81.215 Y90.307 E6.92638
G1 X81.349 Y89.379 E6.95756
G1 X81.561 Y88.465 E6.98877
G1 X81.85 Y87.573 E7.01995
G1 X82.215 Y86.709 E7.05115
G1 X82.651 Y85.879 E7.08233
G1 X83.157 Y85.089 E7.11354
G1 X83.728 Y84.345 E7.14473
G1 X84.36 Y83.652 E7.17592
G0 F6000 X84.752 Y83.827
G1 F1200 X85.438 Y83.213 E7.20655
G1 X86.174 Y82.661 E7.23714
G1 X86.956 Y82.174 E7.26779
G1 X87.777 Y81.758 E7.2984
G1 X88.631 Y81.414 E7.32902
G1 X89.511 Y81.145 E7.35962
G1 X90.412 Y80.954 E7.39026
G1 X91.326 Y80.842 E7.42089
G1 X91.862 Y80.813 E7.43874
G1 X92.182 Y80.804 E7.44939
G1 X92.48 Y80.8 E7.4593
G1 X127.143 Y80.8 E8.61219
G1 X127.993 Y80.811 E8.64047
G1 X128.912 Y80.864 E8.67109
G1 X129.823 Y80.997 E8.70171
G1 X130.719 Y81.208 E8.73232
G1 X131.593 Y81.496 E8.76293
G1 X132.44 Y81.859 E8.79358
G1 X133.251 Y82.294 E8.82419
G1 X134.021 Y82.798 E8.8548
G1 X134.745 Y83.367 E8.88542
G1 X135.417 Y83.997 E8.91606
G1 X136.032 Y84.682 E8.94668
G1 X136.585 Y85.418 E8.9773
G1 X137.072 Y86.199 E9.00791
G1 X137.489 Y87.02 E9.03854
G1 X137.834 Y87.874 E9.06917
G1 X138.103 Y88.754 E9.09978
G1 X138.295 Y89.655 E9.13042
G1 X138.408 Y90.568 E9.16102
G1 X138.437 Y91.112 E9.17914
G1 X138.446 Y91.432 E9.18978
G1 X138.45 Y91.73 E9.1997
G1 X138.449 Y128.461 E10.42137
G1 X138.44 Y129.188 E10.44556
G1 X138.389 Y130.107 E10.47617
G1 X138.258 Y131.019 E10.50681
G1 X138.048 Y131.915 E10.53742
G1 X137.762 Y132.79 E10.56804
G1 X137.401 Y133.637 E10.59866
G1 X136.967 Y134.449 E10.62929
G1 X136.465 Y135.221 E10.65991
G1 X135.897 Y135.946 E10.69055
G1 X135.269 Y136.619 E10.72116
G1 X134.585 Y137.235 E10.75178
G1 X133.85 Y137.789 E10.78239
G1 X133.07 Y138.278 E10.81301
G1 X132.25 Y138.697 E10.84364
G1 X131.397 Y139.043 E10.87425
G1 X130.517 Y139.314 E10.90488
G1 X129.617 Y139.507 E10.93549
G1 X128.703 Y139.622 E10.96613
G1 X128.138 Y139.653 E10.98495
G1 X127.817 Y139.662 E10.99563
G1 X127.52 Y139.666 E11.00551
G1 X92.717 Y139.664 E12.16307
G1 X92.023 Y139.655 E12.18615
G1 X91.103 Y139.603 E12.2168
G1 X90.192 Y139.472 E12.24741
G1 X89.296 Y139.262 E12.27802
G1 X88.421 Y138.975 E12.30865
G1 X87.574 Y138.613 E12.33928
G1 X86.762 Y138.179 E12.36991
G1 X85.991 Y137.676 E12.40052
G1 X85.267 Y137.108 E12.43113
G1 X84.594 Y136.48 E12.46175
G1 X83.978 Y135.795 E12.49239
G1 X83.424 Y135.06 E12.523
G1 X82.936 Y134.279 E12.55363
G1 X82.518 Y133.459 E12.58424
G1 X82.172 Y132.606 E12.61486
G1 X81.902 Y131.726 E12.64547
G1 X81.709 Y130.826 E12.67609
G1 X81.595 Y129.912 E12.70672
G1 X81.565 Y129.365 E12.72495
G1 X81.555 Y129.022 E12.73636
G1 X81.55 Y128.713 E12.74664
G1 X81.551 Y91.915 E13.97054
G1 X81.561 Y91.25 E13.99266
G1 X81.615 Y90.331 E14.02328
G1 X81.748 Y89.42 E14.0539
G1 X81.96 Y88.524 E14.08453
G1 X82.249 Y87.649 E14.11518
G1 X82.613 Y86.804 E14.14578
G1 X83.048 Y85.993 E14.17639
G1 X83.553 Y85.222 E14.20704
G1 X84.122 Y84.499 E14.23764
G1 X84.752 Y83.827 E14.26828
G0 F6000 X85.143 Y84.006
G1 F1200 X85.825 Y83.414 E14.29832
G1 X86.557 Y82.885 E14.32836
G1 X87.333 Y82.423 E14.35839
G1 X88.147 Y82.032 E14.38843
G1 X88.992 Y81.713 E14.41847
G1 X89.862 Y81.471 E14.4485
G1 X90.75 Y81.307 E14.47854
G1 X91.873 Y81.213 E14.51602
G1 X92.193 Y81.204 E14.52667
G1 X92.48 Y81.2 E14.53621
G1 X127.143 Y81.2 E15.68911
G1 X127.987 Y81.211 E15.71718
G1 X128.889 Y81.264 E15.74724
G1 X129.782 Y81.396 E15.77726
G1 X130.66 Y81.607 E15.8073
G1 X131.516 Y81.895 E15.83733
G1 X132.343 Y82.257 E15.86736
G1 X133.135 Y82.692 E15.89741
G1 X133.886 Y83.194 E15.92746
G1 X134.589 Y83.761 E15.9575
G1 X135.239 Y84.388 E15.98754
G1 X135.831 Y85.07 E16.01757
G1 X136.361 Y85.801 E16.0476
G1 X136.823 Y86.577 E16.07764
G1 X137.216 Y87.39 E16.10768
G1 X137.534 Y88.235 E16.13771
G1 X137.777 Y89.105 E16.16775
G1 X137.942 Y89.993 E16.19779
G1 X138.037 Y91.123 E16.23551
G1 X138.046 Y91.443 E16.24615
G1 X138.05 Y91.73 E16.2557
G1 X138.049 Y128.456 E17.47721
G1 X138.04 Y129.183 E17.50139
G1 X137.989 Y130.085 E17.53144
G1 X137.858 Y130.979 E17.56149
G1 X137.649 Y131.857 E17.59151
G1 X137.363 Y132.714 E17.62156
G1 X137.002 Y133.542 E17.65161
G1 X136.57 Y134.334 E17.68161
G1 X136.069 Y135.086 E17.71166
G1 X135.503 Y135.79 E17.74171
G1 X134.878 Y136.441 E17.77173
G1 X134.197 Y137.035 E17.80178
G1 X133.466 Y137.566 E17.83183
G1 X132.692 Y138.03 E17.86185
G1 X131.879 Y138.424 E17.89189
G1 X131.035 Y138.744 E17.92192
G1 X130.165 Y138.989 E17.95198
G1 X129.278 Y139.155 E17.98199
G1 X128.127 Y139.253 E18.02041
G1 X127.806 Y139.262 E18.03109
G1 X127.52 Y139.266 E18.04061
G1 X92.722 Y139.264 E19.19799
G1 X92.028 Y139.255 E19.22108
G1 X91.126 Y139.203 E19.25113
G1 X90.233 Y139.072 E19.28115
G1 X89.354 Y138.862 E19.31121
G1 X88.498 Y138.576 E19.34122
G1 X87.67 Y138.215 E19.37127
G1 X86.878 Y137.782 E19.40129
G1 X86.126 Y137.28 E19.43136
G1 X85.423 Y136.714 E19.46138
G1 X84.772 Y136.088 E19.49142
G1 X84.179 Y135.407 E19.52145
G1 X83.648 Y134.676 E19.5515
G1 X83.184 Y133.901 E19.58155
G1 X82.791 Y133.088 E19.61158
G1 X82.471 Y132.244 E19.6416
G1 X82.227 Y131.374 E19.67165
G1 X82.061 Y130.487 E19.70167
G1 X81.964 Y129.353 E19.73952
G1 X81.954 Y129.01 E19.75094
G1 X81.95 Y128.713 E19.76082
G1 X81.951 Y91.921 E20.98452
G1 X81.961 Y91.256 E21.00664
G1 X82.015 Y90.354 E21.0367
G1 X82.148 Y89.461 E21.06673
G1 X82.359 Y88.583 E21.09676
G1 X82.648 Y87.727 E21.12681
G1 X83.011 Y86.9 E21.15685
G1 X83.445 Y86.109 E21.18686
G1 X83.948 Y85.358 E21.21692
G1 X84.516 Y84.656 E21.24695
G1 X85.143 Y84.006 E21.27699
G1 F2700 E16.27699
;MESH:Soundmixer4_back.stl
G0 F6000 X91.738 Y90.989
G0 X92.564 Y91.814
G0 X93.332 Y127.883
G0 X126.85 Y128.066
;TYPE:WALL-INNER
G1 F2700 E21.27699
G1 F1200 X93.15 Y128.065 E22.39786
G1 X93.15 Y92.4 E23.58408
G1 X126.85 Y92.4 E24.70495
G1 X126.85 Y128.066 E25.8912
G0 F6000 X127.25 Y128.466
G1 F1200 X92.75 Y128.465 E27.03868
G1 X92.75 Y92 E28.25151
G1 X127.25 Y92 E29.39898
G1 X127.25 Y128.466 E30.61185
G0 F6000 X127.65 Y128.866
;TYPE:WALL-OUTER
G1 F1200 X92.35 Y128.865 E31.78593
G1 X92.35 Y91.6 E33.02537
G1 X127.65 Y91.6 E34.19945
G1 X127.65 Y128.866 E35.43893
G0 F6000 X127.38 Y128.596
G0 X126.459 Y127.955
G0 X126.46 Y127.676
;TYPE:SKIN
G1 F1200 X93.54 Y127.675 E36.53385
G1 X93.54 Y92.79 E37.69413
G1 X126.46 Y92.79 E38.78905
G1 X126.46 Y127.676 E39.94937
G1 F2700 E34.94937
G0 F6000 X126.459 Y127.955
G0 X94.137 Y127.955
G1 F2700 E39.94937
G0 F6000 X94.138 Y127.513
G1 F1200 X93.699 Y127.074 E39.97001
G0 F6000 X93.699 Y126.509
G1 F1200 X94.704 Y127.513 E40.01726
G0 F6000 X95.269 Y127.513
G1 F1200 X93.699 Y125.943 E40.09111
G0 F6000 X93.699 Y125.377
G1 F1200 X95.835 Y127.513 E40.19158
G0 F6000 X96.401 Y127.513
G1 F1200 X93.699 Y124.812 E40.31865
G0 F6000 X93.699 Y124.246
G1 F1200 X96.966 Y127.513 E40.47232
G0 F6000 X97.532 Y127.513
G1 F1200 X93.699 Y123.68 E40.65261
G0 F6000 X93.699 Y123.115
G1 F1200 X98.098 Y127.513 E40.85951
G0 F6000 X98.664 Y127.513
G1 F1200 X93.699 Y122.549 E41.09302
G0 F6000 X93.699 Y121.983
G1 F1200 X99.229 Y127.513 E41.35314
G0 F6000 X99.795 Y127.513
G1 F1200 X93.699 Y121.418 E41.63985
G0 F6000 X93.699 Y120.852
G1 F1200 X100.361 Y127.513 E41.95319
G0 F6000 X100.926 Y127.513
G1 F1200 X93.699 Y120.286 E42.29312
G0 F6000 X93.699 Y119.72
G1 F1200 X101.492 Y127.513 E42.65968
G0 F6000 X102.058 Y127.513
G1 F1200 X93.699 Y119.155 E43.05284
G0 F6000 X93.699 Y118.589
G1 F1200 X102.623 Y127.513 E43.4726
G0 F6000 X103.189 Y127.513
G1 F1200 X93.699 Y118.023 E43.91898
G0 F6000 X93.699 Y117.458
G1 F1200 X103.755 Y127.513 E44.39196
G0 F6000 X104.32 Y127.513
G1 F1200 X93.699 Y116.892 E44.89154
G0 F6000 X93.699 Y116.326
G1 F1200 X104.886 Y127.513 E45.41774
G0 F6000 X105.452 Y127.513
G1 F1200 X93.699 Y115.761 E45.97054
G0 F6000 X93.699 Y115.195
G1 F1200 X106.017 Y127.513 E46.54994
G0 F6000 X106.583 Y127.513
G1 F1200 X93.699 Y114.629 E47.15596
G0 F6000 X93.699 Y114.064
G1 F1200 X107.149 Y127.513 E47.78859
G0 F6000 X107.714 Y127.513
G1 F1200 X93.699 Y113.498 E48.44781
G0 F6000 X93.699 Y112.932
G1 F1200 X108.28 Y127.513 E49.13366
G0 F6000 X108.846 Y127.513
G1 F1200 X93.699 Y112.367 E49.8461
G0 F6000 X93.699 Y111.801
G1 F1200 X109.412 Y127.513 E50.58517
G0 F6000 X109.977 Y127.513
G1 F1200 X93.699 Y111.235 E51.35084
G0 F6000 X93.699 Y110.669
G1 F1200 X110.544 Y127.514 E52.14317
G0 F6000 X111.109 Y127.514
G1 F1200 X93.699 Y110.104 E52.96209
G0 F6000 X93.699 Y109.538
G1 F1200 X111.675 Y127.514 E53.80762
G0 F6000 X112.241 Y127.514
G1 F1200 X93.699 Y108.972 E54.67978
G0 F6000 X93.699 Y108.407
G1 F1200 X112.806 Y127.514 E55.57852
G0 F6000 X113.372 Y127.514
G1 F1200 X93.699 Y107.841 E56.50387
G0 F6000 X93.699 Y107.275
G1 F1200 X113.938 Y127.514 E57.45585
G0 F6000 X114.503 Y127.514
G1 F1200 X93.699 Y106.71 E58.43441
G0 F6000 X93.699 Y106.144
G1 F1200 X115.069 Y127.514 E59.43959
G0 F6000 X115.635 Y127.514
G1 F1200 X93.699 Y105.578 E60.47139
G0 F6000 X93.699 Y105.013
G1 F1200 X116.2 Y127.514 E61.52977
G0 F6000 X116.766 Y127.514
G1 F1200 X93.699 Y104.447 E62.61477
G0 F6000 X93.699 Y103.881
G1 F1200 X117.332 Y127.514 E63.72639
G0 F6000 X117.898 Y127.514
G1 F1200 X93.699 Y103.316 E64.86462
G0 F6000 X93.699 Y102.75
G1 F1200 X118.463 Y127.514 E66.02944
G0 F6000 X119.029 Y127.514
G1 F1200 X93.699 Y102.184 E67.22089
G0 F6000 X93.699 Y101.619
G1 F1200 X119.595 Y127.514 E68.43893
G0 F6000 X120.16 Y127.514
G1 F1200 X93.699 Y101.053 E69.68358
G0 F6000 X93.699 Y100.487
G1 F1200 X120.726 Y127.514 E70.95484
G0 F6000 X121.292 Y127.514
G1 F1200 X93.699 Y99.921 E72.25273
G0 F6000 X93.699 Y99.356
G1 F1200 X121.857 Y127.514 E73.5772
G0 F6000 X122.423 Y127.514
G1 F1200 X93.699 Y98.79 E74.92829
G0 F6000 X93.699 Y98.224
G1 F1200 X122.989 Y127.514 E76.306
G0 F6000 X123.554 Y127.514
G1 F1200 X93.699 Y97.659 E77.71029
G0 F6000 X93.699 Y97.093
G1 F1200 X124.12 Y127.514 E79.1412
G0 F6000 X124.686 Y127.514
G1 F1200 X93.699 Y96.527 E80.59873
G0 F6000 X93.699 Y95.962
G1 F1200 X125.251 Y127.514 E82.08284
G0 F6000 X125.817 Y127.514
G1 F1200 X93.699 Y95.396 E83.59357
G0 F6000 X93.699 Y94.83
G1 F1200 X126.3 Y127.431 E85.12702
G0 F6000 X126.3 Y126.866
G1 F1200 X93.699 Y94.265 E86.66047
G0 F6000 X93.699 Y93.699
G1 F1200 X126.3 Y126.3 E88.19393
G0 F6000 X126.3 Y125.734
G1 F1200 X93.699 Y93.133 E89.72738
G0 F6000 X94.081 Y92.949
G1 F1200 X126.3 Y125.169 E91.24288
G0 F6000 X126.3 Y124.603
G1 F1200 X94.646 Y92.949 E92.73179
G0 F6000 X95.212 Y92.949
G1 F1200 X126.3 Y124.037 E94.19407
G0 F6000 X126.3 Y123.472
G1 F1200 X95.778 Y92.949 E95.62976
G0 F6000 X96.344 Y92.949
G1 F1200 X126.3 Y122.906 E97.03882
G0 F6000 X126.3 Y122.34
G1 F1200 X96.909 Y92.949 E98.42128
G0 F6000 X97.475 Y92.949
G1 F1200 X126.3 Y121.775 E99.77715
G0 F6000 X126.3 Y121.209
G1 F1200 X98.041 Y92.949 E101.10639
G0 F6000 X98.606 Y92.949
G1 F1200 X126.3 Y120.643 E102.40903
G0 F6000 X126.3 Y120.078
G1 F1200 X99.172 Y92.949 E103.68507
G0 F6000 X99.738 Y92.949
G1 F1200 X126.3 Y119.512 E104.93449
G0 F6000 X126.3 Y118.946
G1 F1200 X100.303 Y92.949 E106.15731
G0 F6000 X100.869 Y92.949
G1 F1200 X126.3 Y118.38 E107.3535
G0 F6000 X126.3 Y117.815
G1 F1200 X101.435 Y92.949 E108.5231
G0 F6000 X102 Y92.949
G1 F1200 X126.3 Y117.249 E109.6661
G0 F6000 X126.3 Y116.683
G1 F1200 X102.566 Y92.949 E110.78247
G0 F6000 X103.132 Y92.949
G1 F1200 X126.3 Y116.118 E111.87225
G0 F6000 X126.3 Y115.552
G1 F1200 X103.697 Y92.949 E112.93542
G0 F6000 X104.263 Y92.949
G1 F1200 X126.3 Y114.986 E113.97198
G0 F6000 X126.3 Y114.421
G1 F1200 X104.829 Y92.949 E114.98193
G0 F6000 X105.394 Y92.949
G1 F1200 X126.3 Y113.855 E115.96528
G0 F6000 X126.3 Y113.289
G1 F1200 X105.96 Y92.949 E116.92202
G0 F6000 X106.526 Y92.949
G1 F1200 X126.3 Y112.724 E117.85215
G0 F6000 X126.3 Y112.158
G1 F1200 X107.092 Y92.949 E118.75566
G0 F6000 X107.657 Y92.949
G1 F1200 X126.3 Y111.592 E119.63257
G0 F6000 X126.3 Y111.027
G1 F1200 X108.223 Y92.949 E120.48288
G0 F6000 X108.789 Y92.949
G1 F1200 X126.3 Y110.461 E121.30656
G0 F6000 X126.3 Y109.895
G1 F1200 X109.354 Y92.949 E122.10365
G0 F6000 X109.92 Y92.949
G1 F1200 X126.3 Y109.33 E122.87414
G0 F6000 X126.3 Y108.764
G1 F1200 X110.486 Y92.949 E123.61801
G0 F6000 X111.051 Y92.949
G1 F1200 X126.3 Y108.198 E124.33527
G0 F6000 X126.3 Y107.632
G1 F1200 X111.617 Y92.949 E125.02591
G0 F6000 X112.183 Y92.949
G1 F1200 X126.3 Y107.067 E125.68996
G0 F6000 X126.3 Y106.501
G1 F1200 X112.748 Y92.949 E126.3274
G0 F6000 X113.314 Y92.949
G1 F1200 X126.3 Y105.935 E126.93823
G0 F6000 X126.3 Y105.37
G1 F1200 X113.88 Y92.949 E127.52245
G0 F6000 X114.445 Y92.949
G1 F1200 X126.3 Y104.804 E128.08007
G0 F6000 X126.3 Y104.238
G1 F1200 X115.011 Y92.949 E128.61107
G0 F6000 X115.577 Y92.949
G1 F1200 X126.3 Y103.673 E129.11547
G0 F6000 X126.3 Y103.107
G1 F1200 X116.142 Y92.949 E129.59327
G0 F6000 X116.708 Y92.949
G1 F1200 X126.3 Y102.541 E130.04445
G0 F6000 X126.3 Y101.976
G1 F1200 X117.274 Y92.949 E130.46903
G0 F6000 X117.84 Y92.949
G1 F1200 X126.3 Y101.41 E130.86698
G0 F6000 X126.3 Y100.844
G1 F1200 X118.405 Y92.949 E131.23834
